X:1
T:Cest une dure departie
T:Claudin de Sermisy
T:Source : Second livre contenant 31 chansons à 4, eslevées de plusieurs livres---Paris---P.Attaignant---1535. Editor : André Vierendeels (30/04/18) Notes : Original clefs : C1, C3, C4, F4 Original note values have been halved Editorial accidentals above the staff Square bracket indicates ligature  
T:Cest une dure departie
T:©
T:©
T:©
C:Claudin de Sermisy
Z:©
%%score [ 1 [ 2 3 ] 4 ]
L:1/8
Q:1/4=120
M:2/2
K:C
V:1 treble nm="Soprano" snm="S"
V:2 treble-8 nm="Tenor 1" snm="T 1"
V:3 treble-8 nm="Tenor 2" snm="T 2"
V:4 bass nm="Bass" snm="B"
V:1
 z8 | z2 G2 G2 G2 | A2 c2 c2 B2- | BA A4 G2 | A4 z2 E2 | E3 F G2 A2- | AG G4 F2 | G4 z4 | %8
w: |Cest u- ne|du- re de- par-|* * ti- *|e, de|ce- luy où i'ay|_ _ mis mon|cueur,|
 z2 G2 G2 G2 | A2 c2 c2 B2- | BA A4 G2 | A4 z2 E2 | E3 F G2 A2- | AG G4 F2 | G8- | G4 z2 c2 | %16
w: dont men i-|ray o- ter ma|_ _ vi- *|e, à|l'her- mi- tai- ge|_ _ de lan-|gueur,|_ et|
 c2 B2 c2 B2- | BA A4 G2 | A2 cB AGFE | F4 E4 | z2 E2 E3 F | G2 A2 B2 d2- | dc c4 B2 | c4 z2 c2 | %24
w: tous les iours au-|* * ma- ti-||* net|i'i- ray chan-|ter sur la ver-|* * du- *|re, soubz|
 c3 B A2 G2- | G2 F2 E4 | D4 z2 G2 | E3 F G2 A2 | B2 c2 B2 A2- | AG G4 F2 | G4 z2 G2 | E3 F G2 A2 | %32
w: le cou- vert dung|_ buis- son-|net la|pei- * * ne|que pour luy i'en-|* * du- *|re, la|pei- * * ne|
 B2 c2 B2 A2- | AG G4 F2 | G8 |] %35
w: que pour luy i'en-|* * du- *|re.|
V:2
 z2 d2 e2 e2 | c2 e4 d2 | f4 e3 d | c2 d2 B4 | A4 z2 c2 | c2 c2 B2 A2 | cBBA/G/ A2 A2 | %7
w: Cest u- ne|du- * re|de- par- *|* * ti-|e, de|_ ce- luy où|i'ay _ _ _ mis _ mon|
"^#" G2 d2 e2 e2 | c2 e4 d2 | f4 e3 d | c2 d2 B4 | A4 z2 c2 | c2 c2 B2 A2 | cBBA/G/ A2 A2 | %14
w: cueur dont men i-|ray o- *|* ter _|_ ma vi-|e, à|l'her- mi- tai- ge|de _ _ _ _ _ lan-|
 G2 e2 e2 d2 | e4 cBcd | e4 e3 d | c2 A2 B4 | A2 FG AB c2- | c2 B2 c2 c2 | B2 A2 G2 c2 | %21
w: gueur, et tous les|iours _ _ _ _|_ au _|_ ma- ti-||* * net i'i-|ray chan- ter sur|
 defe/f/ g4 | e2 f2 g4 | e2 c2 d2 e2 | c2 e2 f2 e2- | ed d2 c4 | B4 z2 B2 | c2 c2 d2 e2 | %28
w: la _ _ _ _ _|ver- du- *|re, soubz le cou-|vert dung buis- son-||net la|pei- ne que pour|
 f2 g4 e2 | fedc d4 | B4 z2 B2 | c2 c2 d2 e2 | f2 g4 e2 | fedc d4 | B8 |] %35
w: luy i'en- *|du- * * * *|re, la|pei- ne que pour|luy i'en- *|du- * * * *|re.|
V:3
 z2 G2 G2 G2 | A2 c2 c2 B2- | BA A4 G2 | A4 z2 E2 | E3 F G2 A2- | AG G4 F2 | G4 z4 | z2 G2 G2 G2 | %8
w: C'est u- ne|du- re de- par-|* * ti- *|e, de|ce luy où i'ay|_ _ mis mon|cueur,|dont men i-|
 A2 c2 c2 B2- | BA A4 G2 | A4 z2 E2 | E3 F G2 A2- | AG G4 F2 | G4 z4 | z2 c2 c2 B2 | c2 B3 A A2- | %16
w: ray o- ter ma|_ _ vi- *|e à|l'her- mi- tai- ge|_ _ de lan-|gueur,|et tous les|iours au _ ma-|
 A2 G2 A2 E2 | F2 F2 E4 | z4 z2 F2 | F2 F2 G4 | z2 c2 B2 A2 | G2 c2 d2 B2 | c4 d4 | c4 z2 c2 | %24
w: ti- net, au ma-|* ti- net|i'i-|ray chan- ter|i'i- ray chan-|ter sur la ver-|du- *|re, soubz|
 A2 G2 d2 B2 | cBAG A2 G2 | G2 G2 E3 F | G2 A2 B2 c2 | d2 e2 d2 c2- | c2 B2 A4 | G2 G2 E3 F | %31
w: le cou- vert dung|buis- * * * * son-|net la pei- *|* ne que pour|luy i'en- du- *||re, la pei- *|
 G2 A2 B2 c2 | d2 e2 d2 c2- | c2 B2 A4 | G8 |] %35
w: * ne que pour|luy i'en- du- *||re.|
V:4
 z2 G,2 C,2 C,2 | F,2 C,2 G,2 G,2 | F,3 G, A,2 E,2 | F,2 D,2 E,4 | A,,4 z2 A,,2 | C,3 D, E,2 F,2 | %6
w: Cest u- ne|du- re de- par-|ti- * * *||e, de|ce- muy où iay|
 C,2 E,2 D,4 | G,,4 z2 C,2 | F,2 C,2 G,2 G,2 | F,3 G, A,2 E,2 | F,2 D,2 E,4 | A,,4 z2 A,,2 | %12
w: mis _ mon|cueur, dont|men i- ray o-|ter _ _ ma|vi- * *|e, à|
 C,3 D, E,2 F,2 | C,2 E,2 D,2 D,2 | E,2 C,2 G,4 | z2 E,2 F,2 F,2 | E,4 z4 | z4 z2 E,2 | %18
w: l'her- mi- tai- ge|de _ _ lan-|gueur, et tous|au ma- ti-|net,|au|
 F,G,A,G, F,E,D,C, | D,2 D,2 C,4 | z4 z2 C,2 | B,,2 A,,2 G,,2 G,2 | A,2 A,2 G,4 | C,4 z4 | %24
w: ma- * * * * * * *|* ti- net,|i'i-|ray chan- ter sur|la ver- du-|re,|
 z2 C,2 D,2 E,2 | C,2 D,2 A,,2 C,2 | G,,4 z4 | C,4 B,,2 A,,2 | D,2 C,2 G,2 A,2 |"^#" F,2 G,2 D,4 | %30
w: soubz le cou-|vert dung buis- son-|net|la pei- ne|que pour luy i'en-|du- * *|
 G,,4 z4 | C,4 B,,2 A,,2 | D,2 C,2 G,2 A,2 | F,2 G,2 D,4 | G,,8 |] %35
w: re,|la pei- ne|que pour luy i'en-|du- * *|re.|

